!! 00000] TT[WS
!!!OTL: Dahong gongji
!!!ARE: Asia, China, Shanxi Xingxian
!! Ethnic Group: Han
!! WII, 91 (1)
!!!SCT: J0535
!!!YEM: Copyright 1995, estate of Helmut Schaffrath.
**kern
*ICvox
*Ivox
*M2/4
*k[b-]
*F:
{8cc
8cc
8cc
8ff
=1
8dd
8cc
8a
8g
=2
8dd
8cc
8cc
16a
16g
=3
2f}
=4
{8d
8cc
8cc
16a
16g
=5
8cc
16g
16f
4c
=6
8cc
8g
8g
16f
16d
=7
2c}
==
!!!AGN: Xiaodiao. Qingge, Sichun
!!!ONB: ESAC (Essen Associative Code) Database: CHINA
!!!AMT: simple duple
!!!AIN: vox
!!!EED: Helmut Schaffrath
!!!EEV: 1.0
*-
